X: 1
T: Tarholm Brig
C: James McCroskie
N: Tune for Middleton Medley
B: RSCDS 22-6 #1
Z: Anselm Lingnau <anselm@strathspey.org>
M: C
L: 1/8
K: D
A |\
"D"d>c "G"d>B  "D"A<F A>B | "Bm"D<D "D7"F>E "G"D<B B>D |\
"D"A,>B,  B>E "Bm"F>E F<A |  "G"B<d  "D"A>F "A7"E2 E>A ||
"D"d>c "G"d>B  "D"A<F A>B | "Bm"D<D "D7"F>E "G"D<B B>D |\
"D"A,>F "G"D>B, "D"A,>B, "Em7"D>B | "D"A<F "A7"d>F E2 "D"D2 |]
"D"f2 e>f "G"d<B B>A | "D"d<b   a>d "A7"c<A A>d |\
"D"f2 f>e "G"d<B B>A | "D"d/f/b a>f "A"e2   e>d ||
"D"f2 e>f "G"d<B B>A | "D"d<b   a>d "A7"c<A A>F |\
"D"(3DFA "D7"(3AFA "G"BAB "D"d>A | "Bm7"dfb "Em7"a>f "D"d2 d |]
